projects/ccf-eui/src/assets/icons/organ-icons/organ-icon-thymus.svg

<svg width="64" height="64" viewBox="0 0 64 64" fill="currentColor" xmlns="http://www.w3.org/2000/svg">
<g clip-path="url(#clip0_1795_437)">
<path d="M48 40.5333C48.0671 39.2184 47.6916 37.919 46.9334 36.8427C47.4053 35.9108 47.6468 34.8792 47.6374 33.8347C47.6374 31.2747 46.3787 29.2053 44.8214 29.184C44.8214 29.0133 44.8214 28.8427 44.8214 28.672C44.9218 27.7797 44.7642 26.8772 44.3671 26.0718C43.9701 25.2664 43.3503 24.5918 42.5814 24.128C42.6684 23.7286 42.7113 23.3208 42.7094 22.912C42.7094 20.544 41.6427 18.6453 40.256 18.3253C40.2786 17.9844 40.2786 17.6423 40.256 17.3013C40.3133 16.489 40.17 15.6751 39.839 14.9311C39.5079 14.1872 38.9991 13.5359 38.3574 13.0347C38.4 10.496 37.056 8.53333 35.5414 8.53333C34.0267 8.53333 32.7254 10.6667 32.7254 13.1627C32.7273 13.5844 32.7629 14.0053 32.832 14.4213H32.5974C31.0187 14.4213 29.76 16.5547 29.76 19.072C29.76 19.1787 29.76 19.2853 29.76 19.392C29.3951 19.8277 29.1131 20.3266 28.928 20.864C28.8306 20.7412 28.7156 20.6334 28.5867 20.544C28.7069 20.0261 28.7713 19.4969 28.7787 18.9653C28.7787 16.4053 27.4987 14.336 25.9414 14.336C25.9414 14.208 25.9414 14.08 25.9414 13.952C25.9414 11.392 24.64 10.4107 23.0614 10.4107C21.4827 10.4107 20.288 11.392 20.288 13.952C20.2766 14.1367 20.2766 14.3219 20.288 14.5067C19.7873 15.0508 19.4009 15.69 19.1517 16.3862C18.9025 17.0825 18.7956 17.8217 18.8374 18.56C18.8186 19.5096 18.9928 20.453 19.3494 21.3333C18.7157 21.8405 18.2141 22.4934 17.8872 23.2363C17.5603 23.9792 17.4179 24.7902 17.472 25.6C17.4615 25.7918 17.4615 25.9841 17.472 26.176C16.9541 26.7153 16.5524 27.3552 16.2918 28.0561C16.0313 28.757 15.9174 29.504 15.9574 30.2507C15.9407 31.4448 16.2585 32.6197 16.8747 33.6427C16.3853 34.5919 16.1362 35.6467 16.1494 36.7147C16.1404 37.7246 16.3591 38.7236 16.7894 39.6373C16.624 40.2713 16.538 40.9234 16.5334 41.5787C16.5334 44.1173 17.7707 46.1653 19.328 46.208C19.3174 46.3215 19.3174 46.4358 19.328 46.5493C19.328 48.896 20.3734 50.816 21.76 51.136C22.0787 51.6607 22.5219 52.0988 23.0503 52.4114C23.5787 52.724 24.176 52.9014 24.7894 52.928C25.556 52.8782 26.292 52.6082 26.9088 52.1503C27.5257 51.6923 27.9972 51.0661 28.2667 50.3467C28.5917 50.5571 28.9678 50.675 29.3547 50.688C30.592 50.688 31.6587 49.344 32.0214 47.5093C32.213 47.9211 32.5125 48.2733 32.8881 48.5287C33.2637 48.7841 33.7013 48.9331 34.1547 48.96H34.1334C34.133 49.7258 34.3288 50.4789 34.7023 51.1474C35.0758 51.8159 35.6144 52.3775 36.2667 52.7787C36.5341 53.517 37.008 54.1629 37.6321 54.6394C38.2561 55.116 39.0041 55.4032 39.7867 55.4667C41.92 55.4667 43.6267 53.3333 43.8614 50.5813C44.4407 50.0402 44.8909 49.3759 45.179 48.6374C45.467 47.8989 45.5854 47.1051 45.5254 46.3147C45.5155 45.8995 45.4727 45.4857 45.3974 45.0773C46.9334 44.9493 48 42.9867 48 40.5333Z" />
</g>
<defs>
<clipPath id="clip0_1795_437">
<rect width="64" height="64" />
</clipPath>
</defs>
</svg>

<svg xmlns="http://www.w3.org/2000/svg" width="64" height="64" fill="currentColor" viewBox="0 0 64 64"><g clip-path="url(#a)"><path d="M48 40.533a5.9 5.9 0 0 0-1.067-3.69 6.5 6.5 0 0 0 .704-3.008c0-2.56-1.258-4.63-2.816-4.651v-.512a4.69 4.69 0 0 0-2.24-4.544q.13-.601.128-1.216c0-2.368-1.066-4.267-2.453-4.587q.035-.511 0-1.024a4.97 4.97 0 0 0-1.899-4.266c.043-2.539-1.301-4.502-2.816-4.502s-2.816 2.134-2.816 4.63q.003.633.107 1.258h-.235c-1.578 0-2.837 2.134-2.837 4.651v.32a4.7 4.7 0 0 0-.832 1.472 1.6 1.6 0 0 0-.341-.32 7.4 7.4 0 0 0 .192-1.579c0-2.56-1.28-4.629-2.838-4.629v-.384c0-2.56-1.301-3.541-2.88-3.541s-2.773.981-2.773 3.541q-.016.277 0 .555a5.53 5.53 0 0 0-1.45 4.053c-.02.95.155 1.893.511 2.773a5.04 5.04 0 0 0-1.877 4.267 5 5 0 0 0 0 .576 5.46 5.46 0 0 0-1.515 4.075 6.4 6.4 0 0 0 .918 3.392 6.5 6.5 0 0 0-.726 3.072 6.7 6.7 0 0 0 .64 2.922 8 8 0 0 0-.256 1.942c0 2.538 1.238 4.586 2.795 4.629q-.015.171 0 .341c0 2.347 1.045 4.267 2.432 4.587a3.73 3.73 0 0 0 3.03 1.792 3.99 3.99 0 0 0 3.477-2.581c.325.21.7.328 1.088.341 1.237 0 2.304-1.344 2.666-3.179a2.52 2.52 0 0 0 2.134 1.451h-.022a4.48 4.48 0 0 0 2.134 3.819 4.1 4.1 0 0 0 3.52 2.688c2.133 0 3.84-2.134 4.074-4.886a5.3 5.3 0 0 0 1.664-4.266 8 8 0 0 0-.128-1.238C46.933 44.95 48 42.987 48 40.533"/></g><defs><clipPath id="a"><path d="M0 0h64v64H0z"/></clipPath></defs></svg>
